X: 3144
T: A WEE CUP O' TEA
Q: "Reel."
R: Reel.
%R: reel
B: James Kerr "Merry Melodies" v.3 p.17 #144
Z: 2016 John Chambers <jc:trillian.mit.edu>
N: The 2nd strain has initial repeat but no final repeat; fixed.
Q:"Reel."
M: C
L: 1/8
K: Am
|:\
uEAAB c2Ac | uB2GB dBGF |\
EAAB c2Ac | (BG)dB cAAe ::\
cega gece | dBGB dBGB |\
cega gece | dBGB cAAe :|

%%sep 1 1 500
%%sep 1 1 500

